Reedweeks/img/btn-next.svg

<svg width="14" height="16" viewBox="0 0 14 16" fill="none" xmlns="http://www.w3.org/2000/svg">
<path d="M13.1922 9.508C13.1157 9.58533 12.8268 9.916 12.5578 10.188C10.9804 11.8987 6.86542 14.6987 4.71167 15.5533C4.38458 15.6907 3.55763 15.9813 3.1158 16C2.69244 16 2.28886 15.904 1.90374 15.7093C1.42366 15.4373 1.03854 15.0093 0.82752 14.504C0.691674 14.1533 0.480651 13.104 0.480651 13.0853C0.269627 11.9373 0.153564 10.072 0.153564 8.01067C0.153564 6.04667 0.269627 4.25733 0.442403 3.092C0.462186 3.07333 0.673209 1.76933 0.904016 1.32267C1.32738 0.506667 2.15433 0 3.03931 0H3.1158C3.69216 0.02 4.90423 0.526667 4.90423 0.545333C6.94192 1.40133 10.9619 4.064 12.5776 5.83333C12.5776 5.83333 13.0326 6.288 13.2304 6.572C13.539 6.98 13.692 7.48533 13.692 7.99067C13.692 8.55467 13.5193 9.08 13.1922 9.508" fill="#371A45"/>
</svg>

<svg width="14" height="16" fill="none" xmlns="http://www.w3.org/2000/svg"><path d="M13.192 9.508c-.076.077-.365.408-.634.68-1.578 1.71-5.693 4.51-7.846 5.365-.327.138-1.154.428-1.596.447a2.65 2.65 0 0 1-1.212-.29 2.51 2.51 0 0 1-1.076-1.206c-.136-.35-.347-1.4-.347-1.419C.27 11.937.154 10.072.154 8.011c0-1.964.116-3.754.288-4.919.02-.019.231-1.323.462-1.77A2.42 2.42 0 0 1 3.039 0h.077c.576.02 1.788.527 1.788.545 2.038.856 6.058 3.519 7.674 5.288 0 0 .455.455.652.739.309.408.462.913.462 1.419 0 .564-.173 1.089-.5 1.517" fill="#371A45"/></svg>
